Origami/24x24/apps/intellij.svg

<svg width="24" height="24" version="1" xmlns="http://www.w3.org/2000/svg">
 <path d="m12 2h-9c-0.554 0-1 0.446-1 1v9h10z" style="fill:#fe4b71"/>
 <path d="m12 2h9c0.554 0 1 0.446 1 1v9h-10z" style="fill:#2086e7"/>
 <path d="m12 22h-9c-0.554 0-1-0.446-1-1v-9h10z" style="fill:#ff8c2a"/>
 <path d="m12 22h9c0.554 0 1-0.446 1-1v-9h-10z" style="fill:#6655e4"/>
 <path d="m3 2c-0.554 0-1 0.446-1 1v0.5c0-0.554 0.446-1 1-1h18c0.554 0 1 0.446 1 1v-0.5c0-0.554-0.446-1-1-1z" style="fill:#ffffff;opacity:.2"/>
 <path d="m3 22.5c-0.554 0-1-0.446-1-1v-0.5c0 0.554 0.446 1 1 1h18c0.554 0 1-0.446 1-1v0.5c0 0.554-0.446 1-1 1z" style="opacity:.2"/>
 <rect x="5" y="5" width="14" height="14" style="fill:#3f3f3f"/>
 <path d="m7.5071217 15.99995h4.0000003" style="fill:none;opacity:.2;stroke-linecap:round;stroke:#000000"/>
 <path d="m7.5071217 15.5h4.0000003" style="fill:none;stroke-linecap:round;stroke:#ffffff"/>
 <path d="m7.5071212 11.999951h1.999999m-1.999999-4.000001h1.999999m-0.9999985 4.000001v-4.000001" style="fill:none;opacity:.2;stroke-linecap:round;stroke-width:.99999994;stroke:#000000"/>
 <path d="m7.5071212 11.500001h1.999999m-1.999999-4.000001h1.999999m-0.9999985 4.000001v-4.000001" style="fill:none;stroke-linecap:round;stroke-width:.99999994;stroke:#ffffff"/>
 <path d="m11.507123 11.49995v0.500001h0.499999c1.957916-0.05752 1.499596-3.4439945 1.5-4.000001" style="fill:none;opacity:.2;stroke-linecap:round;stroke-linejoin:round;stroke-width:.99999994;stroke:#000000"/>
 <path d="m11.507123 11v0.500001h0.499999c1.957916-0.05752 1.499596-3.4439945 1.5-4.000001" style="fill:none;stroke-linecap:round;stroke-linejoin:round;stroke-width:.99999994;stroke:#ffffff"/>
</svg>

<svg xmlns="http://www.w3.org/2000/svg" width="24" height="24" version="1">
 <path style="fill:#fe4b71" d="M 12,2 H 3 C 2.446,2 2,2.446 2,3 v 9 h 10 z"/>
 <path style="fill:#2086e7" d="m 12,2 h 9 c 0.554,0 1,0.446 1,1 v 9 H 12 Z"/>
 <path style="fill:#ff8c2a" d="M 12,22 H 3 C 2.446,22 2,21.554 2,21 v -9 h 10 z"/>
 <path style="fill:#6655e4" d="m 12,22 h 9 c 0.554,0 1,-0.446 1,-1 V 12 H 12 Z"/>
 <path style="opacity:0.2;fill:#ffffff" d="M 3,2 C 2.446,2 2,2.446 2,3 v 0.5 c 0,-0.554 0.446,-1 1,-1 h 18 c 0.554,0 1,0.446 1,1 V 3 C 22,2.446 21.554,2 21,2 Z"/>
 <path style="opacity:0.2" d="m 3,22.5 c -0.554,0 -1,-0.446 -1,-1 V 21 c 0,0.554 0.446,1 1,1 h 18 c 0.554,0 1,-0.446 1,-1 v 0.5 c 0,0.554 -0.446,1 -1,1 z"/>
 <rect style="fill:#3f3f3f" width="14" height="14" x="5" y="5"/>
 <path style="opacity:0.2;fill:none;stroke:#000000;stroke-linecap:round" d="M 7.5071217,15.99995 H 11.507122"/>
 <path style="fill:none;stroke:#ffffff;stroke-linecap:round" d="M 7.5071217,15.5 H 11.507122"/>
 <path style="opacity:0.2;fill:none;stroke:#000000;stroke-width:0.99999994;stroke-linecap:round" d="m 7.5071212,11.999951 h 1.999999 M 7.5071212,7.99995 h 1.999999 M 8.5071217,11.999951 V 7.99995"/>
 <path style="fill:none;stroke:#ffffff;stroke-width:0.99999994;stroke-linecap:round" d="m 7.5071212,11.500001 h 1.999999 M 7.5071212,7.5 h 1.999999 M 8.5071217,11.500001 V 7.5"/>
 <path style="opacity:0.2;fill:none;stroke:#000000;stroke-width:0.99999994;stroke-linecap:round;stroke-linejoin:round" d="m 11.507123,11.49995 v 0.500001 h 0.499999 c 1.957916,-0.05752 1.499596,-3.4439945 1.5,-4.000001"/>
 <path style="fill:none;stroke:#ffffff;stroke-width:0.99999994;stroke-linecap:round;stroke-linejoin:round" d="m 11.507123,11 v 0.500001 h 0.499999 c 1.957916,-0.05752 1.499596,-3.4439945 1.5,-4.000001"/>
</svg>
